X:1
T:Thou Remainest
T:James McGranahan
T:Thou Remainest
T:Public Domain
T:Public Domain
C:James McGranahan
Z:Public Domain
%%score ( 1 2 ) ( 3 4 )
L:1/8
M:3/4
K:Ab
V:1 treble 
V:2 treble 
V:3 bass 
V:4 bass 
V:1
 [Ec][Fd] | [Ec]3 [DB] [CE][Ec] | [DB]2 [CA]2 [CA]E | [DG]3 [DF] [A,D][DF] | [CE]4 [Ec][Fd] | %5
w: 1.~Thou re-|main- est, blest Re-|deem- er, Lord of|and Lord of strife,|Je- sus, Sav-|
w: 2.~Sa- tis-|fy- ing ev- ery|long- ing, Of my|ful soul for grace;|From my weak-|
w: 3.~One by|one my loved ones|leave me, Voic- es|no more be heard;|But of God|
w: 4.~When from|earth, Thou, Lord, shalt|call me, Calm I’ll|my bur- den down;|For I know,|
 [Ec]3 [DB] [CE][Ec] | [DB]2 [CA]2 [Ec][_Ge] | [Fe]>[Fd] [Ec]2 [DB]2 | [CA]4 || %9
w: ior, Lord for- ev-|er, Thou re- main-|est, Christ, my life.||
w: ness ne- ver turn-|ing, Thou re- main-|est, Christ, my peace.|Thou|
w: naught can be- reave|me, Thou re- main-|est, Christ, my Lord.||
w: what- e’er be- fall|me, Thou re- main-|est, Christ, my crown.||
[M:4/4]"^Refrain" [Ac]>[GB] | [FA]2 [Ac]4 [GB]>[FA] | [=EG]2 [GB]4 [FA]>[CA] | %12
w: |||
w: re- main-|est Thou re- main-|est Thou re- main-|
w: |||
w: |||
 (FGA)[FB] [Fc]2 [A=d]2 | (GABc d2) |[M:3/4] [ce][df] [ce]3 [Bd][EG][DB] | (CE) [Ac]2 [Ae][Ae] | %16
w: ||||
w: est, * * Christ, my all;|or * * * *|flict, joy or sor- row, Thou|re- * main- est, Christ,|
w: ||||
w: ||||
 [Af]>[Ad] [Ac]2 (GE) | [EA]4 |] %18
w: ||
w: all. * * * *||
w: ||
w: ||
V:2
 x2 | x6 | x5 E | x6 | x6 | x6 | x6 | x6 | x4 ||[M:4/4] x2 | x8 | x8 | C3 x5 | e6 |[M:3/4] x8 | %15
w: ||peace|||||||||||||
w: ||sin-||||||||||Peace|con-||
w: ||sweet|||||||||||||
w: ||lay|||||||||||||
 A2 x4 | x4 B2 | x4 |] %18
w: |||
w: my|||
w: |||
w: |||
V:3
 [A,,A,][A,,A,] | [A,,A,]3 [A,,E,] [A,,E,][A,,E,] | [A,,E,]2 [A,,E,]2 [A,,E,][C,A,] | %3
 [D,A,]3 [D,A,] [D,F,][D,A,] | [A,,A,]4 [A,,A,][A,,A,] | [A,,A,]3 [A,,E,] [A,,E,][A,,E,] | %6
 [A,,E,]2 [A,,E,]2 [A,,A,][C,A,] | [D,A,]>[D,A,] [E,A,]2 (G,E,) | [A,,E,]4 ||[M:4/4] z2 | %10
 z2 ([A,C]>[G,B,] [F,A,][F,A,]) z2 | z2 ([G,B,]>[F,A,] [=E,G,][E,G,]) [C,C]>[C,B,] | %12
 (A,B,C)[G,D] [A,C]2 B,2 | (B,CG,A, B,2) |[M:3/4] z4 z4 | z2 z2 [A,C][C,E] | %16
 [D,D]>[D,F] [E,E]2 [E,D]2 | [A,,C]4 |] %18
V:4
 x2 | x6 | x6 | x6 | x6 | x6 | x6 | x4 E,2 | x4 ||[M:4/4] x2 | x8 | x8 | F,3 x5 | E,6 |[M:3/4] x8 | %15
 x6 | x6 | x4 |] %18

